local/share/icons/dracula-icons-main/22/actions/stock_xfburn-new-data-composition.svg

<?xml version="1.0" encoding="UTF-8"?>
<svg xmlns="http://www.w3.org/2000/svg" xmlns:xlink="http://www.w3.org/1999/xlink" width="22" height="22" viewBox="0 0 22 22">
<path fill-rule="nonzero" fill="rgb(100%, 100%, 100%)" fill-opacity="1" d="M 11 3 C 6.582031 3 3 6.582031 3 11 C 3 15.417969 6.582031 19 11 19 C 15.417969 19 19 15.417969 19 11 C 19 6.582031 15.417969 3 11 3 Z M 7 8 L 15 8 L 15 9 L 7 9 Z M 7 11 L 15 11 L 15 12 L 7 12 Z M 7 14 L 15 14 L 15 15 L 7 15 Z M 7 14 "/>
</svg>

<svg xmlns="http://www.w3.org/2000/svg" width="22" height="22" version="1.1" viewBox="0 0 22 22">
 <defs>
  <style id="current-color-scheme" type="text/css">
   .ColorScheme-Text { color:#FFFFFF; } .ColorScheme-Highlight { color:#5294e2; }
  </style>
 </defs>
 <path style="fill:currentColor" class="ColorScheme-Text" d="m 11,3 a 8,8 0 0 0 -8,8 8,8 0 0 0 8,8 8,8 0 0 0 8,-8 8,8 0 0 0 -8,-8 z M 7,8 h 8 V 9 H 7 Z m 0,3 h 8 v 1 H 7 Z m 0,3 h 8 v 1 H 7 Z"/>
</svg>
